X:1
%
T:Flagstone of Memories, The
R:Reel
C:Vincent Broderick
B:The Turoe Stone
S:(Exact transcription of the version in the book, p.5)
M:4/4
L:1/8
Z:transcribed by Michael Anthony
K:G
| B4 BAGA| BDDD EGGA| BDDD EGGA| BddB A2GA|
B2BA BAGA| BDDD EGGA| Bdd2 egge| dBAB G2GA:|
|:g2ge f2fd| e2ed BAGA| Bdef gfgd| Bdef gdBd|
g2ge f2fd| e2ed BAGA| Bdd2 egge| dBAB G2 z2:||

composer: Vincent Broderick
